src/images/bridges/celer.svg

<svg width="54" height="32" viewBox="0 0 54 32" fill="none" xmlns="http://www.w3.org/2000/svg">
<path d="M9.89247 32C15.3559 32 19.7849 27.571 19.7849 22.1075C19.7849 16.6441 15.3559 12.215 9.89247 12.215C4.42901 12.215 0 16.6441 0 22.1075C0 27.571 4.42901 32 9.89247 32Z" fill="#444444"/>
<path d="M44.3011 32C49.2895 32 53.3333 27.571 53.3333 22.1075C53.3333 16.6441 49.2895 12.215 44.3011 12.215C39.3127 12.215 35.2688 16.6441 35.2688 22.1075C35.2688 27.571 39.3127 32 44.3011 32Z" fill="#DDDDDD"/>
<mask id="mask0_7_80" style="mask-type:alpha" maskUnits="userSpaceOnUse" x="3" y="0" width="48" height="24">
<path d="M50.3188 0H3.47447V23.2935H50.3188V0Z" fill="#C4C4C4"/>
</mask>
<g mask="url(#mask0_7_80)">
<mask id="mask1_7_80" style="mask-type:alpha" maskUnits="userSpaceOnUse" x="3" y="0" width="48" height="65">
<path fill-rule="evenodd" clip-rule="evenodd" d="M26.9049 0.354294C14.0498 0.354294 3.62872 10.469 3.62872 22.9462V64.749H15.3009V24.0256C15.3009 17.8054 20.4961 12.763 26.9046 12.763C33.3132 12.763 38.5084 17.8054 38.5084 24.0256V64.749H50.1809V22.9462C50.1809 10.469 39.7599 0.354294 26.9049 0.354294Z" fill="#E9BCFF"/>
</mask>
<g mask="url(#mask1_7_80)">
<path d="M3.62952 23.6305C3.62952 10.7754 14.0506 0.354309 26.9057 0.354309C39.7607 0.354309 50.1817 10.7754 50.1817 23.6305V64.749H3.62952V23.6305Z" fill="#E9BCFF"/>
<path d="M6.26933 23.9876C6.26933 12.5736 15.5222 3.32068 26.9363 3.32068C38.3504 3.32068 47.6033 12.5736 47.6033 23.9876V68.8708H6.26933V23.9876Z" fill="#2C98F3"/>
<path d="M8.98404 23.9341C8.98404 14.1886 16.8844 6.28825 26.6299 6.28825C36.3755 6.28825 44.2758 14.1886 44.2758 23.9341V75.4801H8.98404V23.9341Z" fill="#58C971"/>
<path d="M12.2801 24.2854C12.2801 16.2083 18.8278 9.66056 26.9049 9.66056C34.982 9.66056 41.5298 16.2083 41.5298 24.2854V83.7079H12.2801V24.2854Z" fill="#FFCA42"/>
</g>
</g>
</svg>

<svg xmlns="http://www.w3.org/2000/svg" width="54" height="32" fill="none"><path fill="#444" d="M9.892 32c5.464 0 9.893-4.429 9.893-9.892 0-5.464-4.43-9.893-9.893-9.893S0 16.645 0 22.108 4.429 32 9.892 32"/><path fill="#DDD" d="M44.301 32c4.988 0 9.032-4.429 9.032-9.892 0-5.464-4.044-9.893-9.032-9.893s-9.032 4.43-9.032 9.893S39.313 32 44.3 32"/><mask id="a" width="48" height="24" x="3" y="0" maskUnits="userSpaceOnUse" style="mask-type:alpha"><path fill="#C4C4C4" d="M50.319 0H3.474v23.294H50.32z"/></mask><g mask="url(#a)"><mask id="b" width="48" height="65" x="3" y="0" maskUnits="userSpaceOnUse" style="mask-type:alpha"><path fill="#E9BCFF" fill-rule="evenodd" d="M26.905.354C14.05.354 3.629 10.47 3.629 22.946V64.75H15.3V24.026c0-6.22 5.195-11.263 11.604-11.263s11.603 5.042 11.603 11.263v40.723h11.673V22.946C50.18 10.47 39.76.354 26.905.354" clip-rule="evenodd"/></mask><g mask="url(#b)"><path fill="#E9BCFF" d="M3.63 23.63C3.63 10.776 14.05.355 26.906.355s23.276 10.421 23.276 23.277v41.118H3.63z"/><path fill="#2C98F3" d="M6.27 23.988c0-11.414 9.252-20.667 20.666-20.667s20.667 9.253 20.667 20.667V68.87H6.27z"/><path fill="#58C971" d="M8.984 23.934c0-9.745 7.9-17.646 17.646-17.646s17.646 7.9 17.646 17.646V75.48H8.984z"/><path fill="#FFCA42" d="M12.28 24.285c0-8.077 6.548-14.624 14.625-14.624S41.53 16.208 41.53 24.285v59.423H12.28z"/></g></g></svg>
